X:411
T:Larry O'Gaff
M:6/8
L:1/8
K:D
|:"D"d2 D FED|ABA FED|"G"GBG "D"FAF|"Em"EFG "A"ABc|"D"d2 D FED|
ABA FED|"G"GBG "D"FAF|"A"EFE "D"D3:||:"D"ABc dcd|"Em"e3 edB|
"D"AdA ede|"Bm"fed dcB|"D"ABc "G"d2 B|"D"AdB AFD|"G"GBG "D"FAF|"A"EFE "D"D3:|
